public/svg/usecases/slider/tokenization.svg

<svg width="32" height="32" viewBox="0 0 32 32" fill="none" xmlns="http://www.w3.org/2000/svg">
<g clip-path="url(#clip0_225_3077)">
<path d="M21.0258 13.041C21.0225 13.1552 20.9531 13.2758 20.8408 13.3851C20.679 13.5433 20.4726 13.6525 20.2678 13.7471C19.6816 14.0178 19.0144 14.1483 18.377 14.2266C16.9039 14.4059 15.2542 14.3652 13.8571 13.8189C13.5367 13.6933 13.0182 13.4601 12.9372 13.1095C12.9306 13.0769 12.929 13.0035 12.9372 12.9709C12.9504 12.9106 12.9785 12.8568 13.0231 12.7948C13.142 12.635 13.327 12.5208 13.5004 12.4262C14.0503 12.1295 14.6894 11.9876 15.3053 11.8914C16.1178 11.7642 16.9518 11.743 17.7709 11.7968C18.59 11.8506 19.3612 11.9729 20.0994 12.2599C20.3421 12.3545 20.5931 12.4752 20.7897 12.6464C20.9251 12.7638 21.0242 12.904 21.0275 13.0378C21.0357 13.3525 21.5311 13.3525 21.5229 13.0378C21.5097 12.5388 21.0787 12.1963 20.6658 11.9811C20.0052 11.6353 19.2505 11.4772 18.5157 11.381C17.5909 11.2587 16.6463 11.2472 15.7182 11.3467C14.9536 11.4299 14.1857 11.575 13.4822 11.8881C13.0627 12.0756 12.5574 12.3822 12.455 12.8633C12.3526 13.3443 12.7159 13.7406 13.1024 13.9852C13.6952 14.3586 14.4235 14.5331 15.1072 14.6457C16.0221 14.7957 16.9567 14.8299 17.8815 14.7598C18.8063 14.6897 19.6651 14.5462 20.4759 14.1842C20.9515 13.9722 21.5097 13.6085 21.5229 13.0361C21.5311 12.7214 21.0357 12.7214 21.0275 13.0361L21.0258 13.041Z" fill="#252B37"/>
<path d="M21.026 14.9653C21.0226 15.0794 20.9533 15.2001 20.841 15.3094C20.6841 15.461 20.4859 15.5687 20.2894 15.6616C19.6982 15.9388 19.0228 16.0726 18.3771 16.1508C16.904 16.3302 15.2543 16.2894 13.8572 15.7431C13.6144 15.6486 13.3634 15.5279 13.1669 15.3567C13.0315 15.2393 12.9324 15.099 12.9291 14.9653C12.9209 14.6506 12.4254 14.6506 12.4337 14.9653C12.4469 15.4643 12.8779 15.8067 13.2908 16.022C13.9414 16.3612 14.6846 16.521 15.4079 16.6188C16.3442 16.7444 17.2987 16.7575 18.2384 16.6563C19.003 16.5732 19.7709 16.428 20.4744 16.115C20.95 15.903 21.5082 15.5393 21.5214 14.9669C21.5296 14.6522 21.0342 14.6522 21.026 14.9669V14.9653Z" fill="#252B37"/>
<path d="M12.4336 16.9743C12.4518 17.731 13.365 18.1126 13.9777 18.3148C15.1254 18.6915 16.3838 18.773 17.5843 18.7159C17.9014 18.7013 17.903 18.212 17.5843 18.2267C16.4944 18.2773 15.3764 18.212 14.3261 17.9087C13.9677 17.806 13.611 17.6739 13.3006 17.4668C13.114 17.3412 12.934 17.1553 12.9307 16.9743C12.9224 16.6596 12.427 16.6596 12.4352 16.9743H12.4336Z" fill="#252B37"/>
<path d="M12.4336 18.9817C12.4518 19.7123 13.3072 20.0906 13.9 20.2961C14.9834 20.6712 16.179 20.7625 17.3184 20.7348C17.6372 20.7266 17.6372 20.2374 17.3184 20.2455C16.288 20.2716 15.2327 20.1934 14.2435 19.8933C13.9033 19.7906 13.5582 19.6601 13.2676 19.453C13.0925 19.3291 12.934 19.153 12.9307 18.9834C12.9224 18.6686 12.427 18.6686 12.4352 18.9834L12.4336 18.9817Z" fill="#252B37"/>
<path d="M12.4337 20.9909C12.4552 21.8307 13.5533 22.2156 14.2205 22.4064C15.5152 22.7733 16.9222 22.8222 18.2549 22.6804C18.5687 22.6477 18.572 22.1569 18.2549 22.1911C17.0378 22.32 15.7728 22.289 14.5822 21.9955C14.1611 21.8911 13.7383 21.7574 13.3684 21.5291C13.157 21.3986 12.9341 21.198 12.9291 20.9909C12.9209 20.6762 12.4254 20.6762 12.4337 20.9909Z" fill="#252B37"/>
<path d="M12.929 21.0283V13.2155C12.929 12.9008 12.4336 12.9008 12.4336 13.2155V21.0283C12.4336 21.343 12.929 21.343 12.929 21.0283Z" fill="#252B37"/>
<path d="M21.0293 13.0214V16.4574C21.0293 16.7721 21.5247 16.7721 21.5247 16.4574V13.0214C21.5247 12.7067 21.0293 12.7067 21.0293 13.0214Z" fill="#252B37"/>
<path d="M16.3086 6.21163V8.71641C16.3086 9.03114 16.804 9.03114 16.804 8.71641V6.21163C16.804 5.8969 16.3086 5.8969 16.3086 6.21163Z" fill="#252B37"/>
<path opacity="0.25" d="M16.5353 6.62419C16.9895 6.62419 17.3577 6.26061 17.3577 5.8121C17.3577 5.36359 16.9895 5 16.5353 5C16.0811 5 15.7129 5.36359 15.7129 5.8121C15.7129 6.26061 16.0811 6.62419 16.5353 6.62419Z" fill="#3B82F6"/>
<path d="M6.22732 15.771H8.76388C9.0826 15.771 9.0826 15.2817 8.76388 15.2817H6.22732C5.9086 15.2817 5.9086 15.771 6.22732 15.771Z" fill="#252B37"/>
<path opacity="0.25" d="M5.8224 16.3595C6.2766 16.3595 6.6448 15.996 6.6448 15.5474C6.6448 15.0989 6.2766 14.7354 5.8224 14.7354C5.3682 14.7354 5 15.0989 5 15.5474C5 15.996 5.3682 16.3595 5.8224 16.3595Z" fill="#3B82F6"/>
<path d="M8.7535 9.62638C9.29846 10.1221 9.84177 10.6162 10.3867 11.112C10.4644 11.1821 10.542 11.2522 10.6196 11.324C10.7187 11.4136 10.8722 11.4202 10.9697 11.324C11.0622 11.2326 11.0688 11.0679 10.9697 10.9782C10.4247 10.4825 9.88141 9.9884 9.33644 9.49267C9.25883 9.42254 9.18121 9.35242 9.1036 9.28067C9.00451 9.19098 8.85093 9.18446 8.7535 9.28067C8.66102 9.37199 8.65441 9.53669 8.7535 9.62638Z" fill="#252B37"/>
<path opacity="0.25" d="M8.61732 10.0094C9.07152 10.0094 9.43972 9.64586 9.43972 9.19735C9.43972 8.74884 9.07152 8.38525 8.61732 8.38525C8.16312 8.38525 7.79492 8.74884 7.79492 9.19735C7.79492 9.64586 8.16312 10.0094 8.61732 10.0094Z" fill="#3B82F6"/>
<path d="M8.40438 23.3747C8.94934 22.879 9.49265 22.3849 10.0376 21.8892C10.1152 21.819 10.1928 21.7489 10.2705 21.6772C10.3695 21.5875 10.3629 21.4228 10.2705 21.3315C10.173 21.2352 10.0194 21.2418 9.92037 21.3315C9.3754 21.8272 8.83209 22.3213 8.28713 22.817C8.20951 22.8872 8.1319 22.9573 8.05428 23.029C7.9552 23.1187 7.9618 23.2834 8.05428 23.3747C8.15171 23.471 8.30529 23.4644 8.40438 23.3747Z" fill="#252B37"/>
<path opacity="0.25" d="M7.91615 24.2702C8.37035 24.2702 8.73855 23.9066 8.73855 23.4581C8.73855 23.0096 8.37035 22.646 7.91615 22.646C7.46195 22.646 7.09375 23.0096 7.09375 23.4581C7.09375 23.9066 7.46195 24.2702 7.91615 24.2702Z" fill="#3B82F6"/>
<path d="M22.6317 8.02012C22.2618 8.65284 21.8919 9.28556 21.522 9.91827C21.4691 10.0096 21.4163 10.0993 21.3634 10.1906C21.2032 10.4646 21.631 10.7108 21.7911 10.4368C22.1611 9.80412 22.531 9.17141 22.9009 8.53869C22.9537 8.44737 23.0066 8.35768 23.0594 8.26636C23.2196 7.9924 22.7919 7.74616 22.6317 8.02012Z" fill="#252B37"/>
<path opacity="0.25" d="M23.0665 8.62029C23.5207 8.62029 23.8889 8.2567 23.8889 7.80819C23.8889 7.35968 23.5207 6.99609 23.0665 6.99609C22.6123 6.99609 22.2441 7.35968 22.2441 7.80819C22.2441 8.2567 22.6123 8.62029 23.0665 8.62029Z" fill="#3B82F6"/>
<path d="M12.4064 23.1188C11.0308 22.1942 9.96893 20.8358 9.43553 19.2768C8.90873 17.7439 8.89057 16.0643 9.38434 14.5216C10.286 11.7005 12.8804 9.58384 15.8628 9.26585C17.8808 9.05059 19.9285 9.62297 21.5189 10.8721C21.7666 11.0662 22.1183 10.7221 21.8689 10.5264C20.3447 9.32944 18.4439 8.67879 16.492 8.73423C14.8753 8.77989 13.2816 9.30172 11.9671 10.2345C9.24562 12.1653 7.95752 15.6044 8.78157 18.8186C9.27534 20.7445 10.499 22.4257 12.157 23.5411C12.4213 23.7189 12.669 23.2949 12.4064 23.1188Z" fill="#252B37"/>
<path d="M24.2041 19.9668C24.1925 21.3236 23.3321 22.5825 22.0275 23.0472C20.7047 23.5185 19.2168 23.1157 18.3168 22.0509C17.4168 20.986 17.3227 19.4384 18.0427 18.266C18.761 17.0967 20.1912 16.4738 21.5503 16.7527C23.0861 17.069 24.1925 18.4225 24.2041 19.9668C24.2074 20.2815 24.7028 20.2815 24.6995 19.9668C24.6863 18.3899 23.6855 16.9712 22.1861 16.4249C20.6866 15.8786 18.9361 16.3564 17.9337 17.5778C16.9313 18.7992 16.7843 20.5587 17.6166 21.9139C18.4456 23.2625 20.0624 23.9588 21.6279 23.662C23.4031 23.3261 24.6863 21.7345 24.6995 19.9652C24.7028 19.6504 24.2074 19.6504 24.2041 19.9652V19.9668Z" fill="#252B37"/>
<path d="M23.7194 22.3035C24.5715 23.3015 25.4236 24.2979 26.2774 25.2959C26.5119 25.5715 26.606 25.94 26.36 26.2499C26.0594 26.6282 25.5293 26.5679 25.2337 26.227C24.7944 25.7231 24.3651 25.2111 23.9324 24.7039C23.4997 24.1968 23.0506 23.6717 22.6096 23.1548C22.4032 22.9134 22.0548 23.2608 22.2595 23.5005C23.1364 24.5262 24.0018 25.5617 24.8902 26.5776C25.2585 27 25.8728 27.1223 26.3748 26.8614C26.9776 26.5467 27.189 25.7476 26.8174 25.1834C26.6936 24.9942 26.5251 24.8262 26.3781 24.655C26.1024 24.3321 25.8249 24.0076 25.5491 23.6847C25.057 23.1091 24.5649 22.5318 24.0711 21.9562C23.8647 21.7148 23.5163 22.0622 23.721 22.3019L23.7194 22.3035Z" fill="#252B37"/>
<path d="M21.4419 18.4125C21.5476 18.5527 21.6153 18.7011 21.65 18.8626C21.6583 18.9017 21.688 18.887 21.7078 18.887C21.8663 18.887 22.0249 18.887 22.1834 18.887C22.3007 18.887 22.332 18.9197 22.332 19.0371C22.332 19.13 22.332 19.223 22.332 19.3143C22.332 19.4023 22.2957 19.4366 22.2049 19.4366C22.0447 19.4366 21.8828 19.4382 21.7227 19.4366C21.6797 19.4366 21.6616 19.4464 21.6533 19.4904C21.541 20.0253 21.1942 20.3416 20.679 20.4998C20.5617 20.5357 20.4412 20.5536 20.3157 20.5781C20.4114 20.6825 20.5056 20.7819 20.5964 20.883C20.9135 21.2369 21.2239 21.5957 21.5245 21.9642C21.6285 22.0914 21.7326 22.2153 21.8383 22.3409C21.868 22.3768 21.8795 22.4127 21.8581 22.4567C21.8366 22.4991 21.8019 22.5203 21.7507 22.5203C21.541 22.5186 21.3313 22.517 21.1215 22.5203C21.0638 22.5203 21.0307 22.4893 20.9993 22.4518C20.8755 22.3067 20.7566 22.1599 20.6311 22.0164C20.428 21.7799 20.2215 21.5467 20.0168 21.3119C19.8087 21.0738 19.5957 20.8406 19.3777 20.6107C19.343 20.5748 19.3281 20.5373 19.3281 20.4868C19.3314 20.3661 19.3281 20.2438 19.3281 20.1231C19.3281 20.0318 19.3661 19.9943 19.4569 19.9927C19.6568 19.9894 19.8582 20.0041 20.058 19.9796C20.3041 19.9486 20.537 19.8883 20.7153 19.7008C20.7764 19.6372 20.8127 19.5605 20.8474 19.4823C20.8623 19.448 20.854 19.435 20.8144 19.4366C20.6922 19.4366 20.5683 19.4366 20.4461 19.4366C20.1224 19.4366 19.7988 19.4366 19.4751 19.4366C19.3545 19.4366 19.3281 19.4089 19.3281 19.2882C19.3281 19.1952 19.3281 19.1023 19.3281 19.011C19.3281 18.9311 19.3612 18.8936 19.4421 18.8887C19.4734 18.887 19.5048 18.8887 19.5362 18.8887C19.9358 18.8887 20.3355 18.8887 20.7351 18.8887C20.7566 18.8887 20.7863 18.9001 20.7962 18.8789C20.8061 18.8561 20.7814 18.8365 20.7681 18.8169C20.6526 18.6587 20.4858 18.5902 20.3025 18.5527C20.03 18.4973 19.7525 18.5169 19.4768 18.5136C19.3562 18.5136 19.3281 18.4859 19.3281 18.3652C19.3281 18.2396 19.3281 18.1141 19.3281 17.9885C19.3281 17.9005 19.3645 17.8662 19.4536 17.8662C20.3685 17.8662 21.2834 17.8662 22.1983 17.8662C22.2759 17.8662 22.3172 17.8988 22.3188 17.9755C22.3221 18.0847 22.3221 18.1956 22.3188 18.3065C22.3172 18.3848 22.2742 18.4174 22.1834 18.4174C21.9555 18.4174 21.7276 18.4174 21.4997 18.4158C21.4816 18.4158 21.4617 18.4158 21.4337 18.4158L21.4419 18.4125Z" fill="#3B82F6"/>
</g>
<defs>
<clipPath id="clip0_225_3077">
<rect width="22" height="22" fill="white" transform="translate(5 5)"/>
</clipPath>
</defs>
</svg>

<svg xmlns="http://www.w3.org/2000/svg" width="32" height="32" fill="none" viewBox="0 0 32 32"><g clip-path="url(#a)"><path fill="#252b37" d="M21.026 13.041c-.003.114-.073.235-.185.344a2 2 0 0 1-.573.362c-.586.27-1.254.401-1.891.48-1.473.179-3.123.138-4.52-.408-.32-.126-.839-.359-.92-.71a.4.4 0 0 1 0-.138.5.5 0 0 1 .086-.176c.119-.16.304-.274.477-.369.55-.296 1.19-.438 1.805-.535a11.2 11.2 0 0 1 2.466-.094c.819.054 1.59.176 2.328.463.243.095.494.215.69.386.136.118.235.258.238.392.009.314.504.314.496 0-.013-.5-.444-.842-.857-1.057-.66-.346-1.416-.504-2.15-.6a11.8 11.8 0 0 0-2.798-.034c-.764.083-1.532.228-2.236.541-.42.188-.925.494-1.027.975s.26.878.647 1.122c.593.374 1.322.548 2.005.66.915.15 1.85.185 2.774.115.925-.07 1.784-.214 2.595-.576.476-.212 1.034-.575 1.047-1.148.008-.315-.487-.315-.495 0z"/><path fill="#252b37" d="M21.026 14.965c-.003.114-.073.235-.185.344a2 2 0 0 1-.552.353c-.59.277-1.266.41-1.912.489-1.473.18-3.123.138-4.52-.408-.243-.094-.494-.215-.69-.386-.136-.118-.235-.258-.238-.392-.008-.314-.504-.314-.495 0 .013.5.444.842.857 1.057.65.34 1.394.499 2.117.597.936.125 1.89.139 2.83.037.765-.083 1.533-.228 2.236-.541.476-.212 1.034-.576 1.047-1.148.009-.315-.487-.315-.495 0zm-8.592 2.009c.018.757.931 1.139 1.544 1.34 1.147.378 2.406.459 3.606.402.317-.015.319-.504 0-.49-1.09.051-2.208-.014-3.258-.317-.358-.103-.715-.235-1.025-.442-.187-.126-.367-.312-.37-.493-.009-.314-.504-.314-.496 0zm0 2.008c.018.73.873 1.109 1.466 1.314 1.083.375 2.279.466 3.418.439.32-.008.32-.498 0-.49-1.03.027-2.085-.052-3.075-.352-.34-.102-.685-.233-.975-.44-.176-.124-.334-.3-.337-.47-.009-.314-.504-.314-.496 0zm0 2.008c.021.84 1.12 1.226 1.787 1.416 1.294.367 2.701.416 4.034.274.314-.032.317-.523 0-.489-1.217.129-2.482.098-3.673-.195-.42-.105-.844-.239-1.214-.467-.211-.13-.434-.331-.439-.538-.008-.315-.504-.315-.495 0"/><path fill="#252b37" d="M12.929 21.028v-7.812c0-.315-.495-.315-.495 0v7.812c0 .315.495.315.495 0m8.101-8.007v3.436c0 .315.495.315.495 0v-3.436c0-.314-.496-.314-.496 0m-4.72-6.809v2.504c0 .315.495.315.495 0V6.212c0-.315-.495-.315-.495 0"/><path fill="#3b82f6" d="M16.535 6.624a.817.817 0 0 0 .823-.812.817.817 0 0 0-.823-.812.817.817 0 0 0-.822.812c0 .449.368.812.822.812" opacity=".25"/><path fill="#252b37" d="M6.227 15.771h2.537c.319 0 .319-.49 0-.49H6.227c-.318 0-.318.49 0 .49"/><path fill="#3b82f6" d="M5.822 16.36a.817.817 0 0 0 .823-.813.817.817 0 0 0-.823-.812.817.817 0 0 0-.822.812c0 .449.368.813.822.813" opacity=".25"/><path fill="#252b37" d="m8.754 9.626 1.633 1.486.233.212c.099.09.252.096.35 0 .092-.091.099-.256 0-.346L9.336 9.493l-.232-.212a.255.255 0 0 0-.35 0c-.093.091-.1.256 0 .345"/><path fill="#3b82f6" d="M8.617 10.01a.817.817 0 0 0 .823-.813.817.817 0 0 0-.823-.812.817.817 0 0 0-.822.812c0 .449.368.812.822.812" opacity=".25"/><path fill="#252b37" d="m8.404 23.375 1.634-1.486.232-.212c.1-.09.093-.254 0-.346a.255.255 0 0 0-.35 0l-1.633 1.486-.233.212c-.099.09-.092.254 0 .346.098.096.251.09.35 0"/><path fill="#3b82f6" d="M7.916 24.27a.817.817 0 0 0 .823-.812.817.817 0 0 0-.823-.812.817.817 0 0 0-.822.812c0 .449.368.812.822.812" opacity=".25"/><path fill="#252b37" d="m22.632 8.02-1.11 1.898-.159.273c-.16.274.268.52.428.246l1.11-1.898q.08-.136.158-.273c.16-.274-.267-.52-.427-.246"/><path fill="#3b82f6" d="M23.067 8.62a.817.817 0 0 0 .822-.812.817.817 0 0 0-.822-.812.817.817 0 0 0-.823.812c0 .449.368.812.823.812" opacity=".25"/><path fill="#252b37" d="M12.406 23.119a7.66 7.66 0 0 1-2.97-3.842 7.58 7.58 0 0 1-.052-4.755c.902-2.822 3.496-4.938 6.479-5.256a7.84 7.84 0 0 1 5.656 1.606c.248.194.6-.15.35-.346a8.34 8.34 0 0 0-5.377-1.792 8.26 8.26 0 0 0-4.525 1.5c-2.721 1.931-4.01 5.37-3.185 8.585.493 1.925 1.717 3.607 3.375 4.722.264.178.512-.246.25-.422m11.797-3.152c-.012 1.357-.872 2.616-2.177 3.08a3.39 3.39 0 0 1-3.71-.996c-.9-1.065-.994-2.613-.274-3.785a3.37 3.37 0 0 1 3.507-1.513 3.326 3.326 0 0 1 2.654 3.214c.003.315.499.315.495 0a3.82 3.82 0 0 0-2.513-3.542c-1.5-.546-3.25-.069-4.252 1.153-1.003 1.221-1.15 2.98-.317 4.336.829 1.348 2.445 2.045 4.01 1.748 1.776-.336 3.06-1.927 3.073-3.697.003-.315-.493-.315-.496 0z"/><path fill="#252b37" d="m23.72 22.304 2.557 2.992c.235.276.329.644.083.954-.3.378-.83.318-1.126-.023-.44-.504-.869-1.016-1.302-1.523l-1.322-1.55c-.207-.24-.555.107-.35.346.876 1.026 1.742 2.062 2.63 3.078.369.422.983.544 1.485.283.603-.314.814-1.113.442-1.678-.123-.189-.292-.357-.439-.528l-.829-.97q-.737-.864-1.478-1.729c-.206-.241-.555.106-.35.346z"/><path fill="#3b82f6" d="M21.442 18.413q.157.209.208.45c.008.039.038.024.058.024h.475c.118 0 .149.033.149.15v.277c0 .088-.036.123-.127.123h-.482c-.043 0-.061.01-.07.053-.112.535-.459.852-.974 1.01-.117.036-.238.054-.363.078q.144.155.28.305.477.53.928 1.081.156.19.314.377c.03.036.041.072.02.116q-.031.063-.107.063-.315-.003-.63 0c-.057 0-.09-.03-.122-.068-.123-.145-.242-.292-.368-.436q-.306-.354-.614-.704a23 23 0 0 0-.64-.701.17.17 0 0 1-.049-.124c.003-.12 0-.243 0-.364 0-.091.038-.129.129-.13.2-.004.401.011.601-.013.246-.031.479-.092.657-.28a.7.7 0 0 0 .132-.218c.015-.034.007-.047-.033-.045h-1.338c-.121 0-.148-.028-.148-.149v-.277c0-.08.033-.117.114-.122q.047-.002.094 0h1.2c.02 0 .05.011.06-.01.01-.023-.015-.043-.028-.062-.115-.158-.282-.227-.466-.264-.272-.056-.55-.036-.825-.04-.12 0-.149-.027-.149-.148v-.377c0-.087.037-.122.126-.122h2.744c.078 0 .12.033.12.11q.006.164 0 .33c0 .079-.044.111-.135.111l-.683-.001h-.066z"/></g><defs><clipPath id="a"><path fill="#fff" d="M5 5h22v22H5z"/></clipPath></defs></svg>
